X:2294
T:Mylecharane
C:Traditional
O:Isle of Man 
B:Mona Melodies 2
N:See also KV 247,295,302,373,403,404.
Z:Kiaull Vannin #294
L:1/4
M:3/4 
K:D
e|d B e|e2 e|d B G|F2 f|g f e|e ^d e|f2 f|
g a g|f g e|{e}d{c}B{A}G|F G A|B G E|F F ^d|e2||

